packages/core/src/svgs/tokens/mono/SEILOR.svg

<svg width="24" height="24" viewBox="0 0 24 24" fill="none" xmlns="http://www.w3.org/2000/svg">
<path fill-rule="evenodd" clip-rule="evenodd" d="M17 6.99998C17 4.27499 14.725 2 11.9999 2C9.27492 2 6.99998 4.27499 6.99998 6.99998V2C4.27499 2 2 4.27499 2 6.99998H6.99998C4.27499 6.99998 2 9.27492 2 11.9999C2 14.725 4.27499 17 6.99998 17H2C2 19.725 4.27499 22 6.99998 22V17C6.99998 19.725 9.27492 22 11.9999 22C14.725 22 17 19.725 17 17V22C19.725 22 22 19.725 22 17H17C19.725 17 22 14.725 22 11.9999C22 9.27492 19.725 6.99998 17 6.99998ZM17 11.9999V17H11.9999C13.326 17 14.5978 16.4732 15.5355 15.5355C16.4732 14.5978 17 13.326 17 11.9999ZM6.99998 11.9999C6.99998 10.6739 7.52676 9.40208 8.46443 8.46443C9.40208 7.52676 10.6739 6.99998 11.9999 6.99998H6.99998V11.9999ZM6.99998 11.9999C6.99998 13.326 7.52676 14.5978 8.46443 15.5355C9.40208 16.4732 10.6739 17 11.9999 17H6.99998V11.9999ZM17 11.9999V2C19.725 2 22 4.27499 22 6.99998H11.9999C13.326 6.99998 14.5978 7.52676 15.5355 8.46443C16.4732 9.40208 17 10.6739 17 11.9999Z" fill="white"/>
</svg>

<svg xmlns="http://www.w3.org/2000/svg" width="24" height="24" fill="none" viewBox="0 0 24 24">
    <path fill="#fff" fill-rule="evenodd" d="M17 7c0-2.725-2.275-5-5-5S7 4.275 7 7V2C4.275 2 2 4.275 2 7h5c-2.725 0-5 2.275-5 5s2.275 5 5 5H2c0 2.725 2.275 5 5 5v-5c0 2.725 2.275 5 5 5s5-2.275 5-5v5c2.725 0 5-2.275 5-5h-5c2.725 0 5-2.275 5-5s-2.275-5-5-5m0 5v5h-5a5 5 0 0 0 5-5M7 12a5 5 0 0 1 5-5H7zm0 0a5 5 0 0 0 5 5H7zm10 0V2c2.725 0 5 2.275 5 5H12a5 5 0 0 1 5 5" clip-rule="evenodd"/>
</svg>
